X:1
T:Title
%%score [ ( 1 2 ) ( 3 4 ) ] { ( 5 6 ) | ( 7 8 ) }
L:1/8
Q:1/4=120
M:4/4
K:D
V:1 treble nm="Midi_74"
V:2 treble 
V:3 bass nm="Midi_74"
V:4 bass 
V:5 treble nm="Org."
V:6 treble 
V:7 bass 
V:8 bass 
V:1
 A8 |"^Double Counterpoint." G4 F4 | E8 || F8 | E4 D4 | B4 E4 | F8 || d8 | c4 d4 | A8 || B8 | %11
 c4 d4 |"^William Henry Havergal\n(1793-1870)" e4 e4 | d8 |] %14
V:2
 F8 | E4 D4 | C8 || D8 | B,4 D4 | D4 B,4 | C8 || D8 | G4 F4 | E8 || F8 | F4 F4 | E4 G4 | F8 |] %14
V:3
 A,8 | A,4 A,4 | A,8 || A,8 | G,4 A,4 | G,4 B,4 | ^A,8 || =A,8 | A,4 A,4 | A,8 || (F,6 ^G,2) | %11
 ^A,4 B,4 | B,4 C4 | D8 |] %14
V:4
 D,8 | C,4 D,4 | A,,8 || D,8 | E,4 F,4 | G,4 G,4 | F,8 || F,8 | E,4 D,4 | C,8 || D,8 | C,4 B,,4 | %12
 G,4 (A,2 A,,2) | D,8 |] %14
V:5
 A8 | G4 F4 | E8 || F8 | E4 D4 | B4 E4 | F8 || d8 | c4 d4 | A8 || B8 | c4 d4 | e4 e4 | d8 |] %14
V:6
 F8 | E4 D4 | C8 || D8 | B,4 D4 | D4 B,4 | C8 || [DA]8 | G4 F4 | E8 || F8 | F4 F4 | [EB]4 [Gc]4 | %13
 F8 |] %14
V:7
 A,8 | A,8 | A,8 || A,8 | G,4 A,4 | G,4 B,4 | ^A,8 || =A,8 | A,8 | A,8 || F,6 ^G,2 | ^A,4 B,4 | %12
 B,4 A,4 | A,8 |] %14
V:8
 D,8 | C,4 D,4 | A,,8 || D,8 | E,4 F,4 | G,4 G,4 | F,8 || F,8 | E,4 D,4 | C,8 || D,8 | C,4 B,,4 | %12
 G,4 A,2 A,,2 | D,8 |] %14

